modules/feathericon/icons/step-backward.svg

<?xml version="1.0" encoding="UTF-8"?>
<svg width="24px" height="24px" viewBox="0 0 24 24" version="1.1" xmlns="http://www.w3.org/2000/svg" xmlns:xlink="http://www.w3.org/1999/xlink">
    <!-- Generator: sketchtool 52.2 (67145) - http://www.bohemiancoding.com/sketch -->
    <title>step-backward</title>
    <desc>Created with sketchtool.</desc>
    <g id="production" stroke="none" stroke-width="1" fill="none" fill-rule="evenodd">
        <g id="step-backward" fill="#000000" fill-rule="nonzero">
            <path d="M11,15 L11,5 L4,5 C3.44771525,5 3,4.55228475 3,4 C3,3.44771525 3.44771525,3 4,3 L20,3 C20.5522847,3 21,3.44771525 21,4 C21,4.55228475 20.5522847,5 20,5 L13,5 L13,15 L15.2398992,15 C15.3899461,15 15.5366358,15.0417685 15.6614824,15.1200419 C16.0107335,15.339007 16.1051081,15.7827728 15.8722741,16.1112204 L12.6323345,20.6816464 C12.5766746,20.7601633 12.5050328,20.8275376 12.4215429,20.8798822 C12.0722919,21.0988473 11.6004187,21.0100941 11.3675847,20.6816464 L8.12764515,16.1112204 C8.04441407,15.9938104 8,15.8558583 8,15.714749 C8,15.320004 8.34027257,15 8.76002006,15 L11,15 Z M20,9 C20.5522847,9 21,9.44771525 21,10 C21,10.5522847 20.5522847,11 20,11 L15,11 L15,9 L20,9 Z M8,9 L9,9 L9,11 L4,11 C3.44771525,11 3,10.5522847 3,10 C3,9.44771525 3.44771525,9 4,9 L8,9 Z" id="Shape"></path>
        </g>
    </g>
</svg>

<svg width="24" height="24" viewBox="0 0 24 24" xmlns="http://www.w3.org/2000/svg"><path d="M11 15V5H4a1 1 0 1 1 0-2h16a1 1 0 0 1 0 2h-7v10h2.24c.15 0 .297.042.421.12.35.219.444.663.211.991l-3.24 4.57a.74.74 0 0 1-.21.199.79.79 0 0 1-1.054-.198l-3.24-4.57A.685.685 0 0 1 8 15.714c0-.395.34-.715.76-.715H11zm9-6a1 1 0 0 1 0 2h-5V9h5zM8 9h1v2H4a1 1 0 0 1 0-2h4z" fill="#000" fill-rule="nonzero"/></svg>
